img/svg/arrow.svg

<?xml version="1.0" encoding="utf-8"?><!DOCTYPE svg PUBLIC "-//W3C//DTD SVG 1.1//EN" "http://www.w3.org/Graphics/SVG/1.1/DTD/svg11.dtd"><svg version="1.1" baseProfile="full" xmlns="http://www.w3.org/2000/svg" xmlns:xlink="http://www.w3.org/1999/xlink" xmlns:ev="http://www.w3.org/2001/xml-events"   height="17px"   width="25px" ><path fill="rgb( 255, 255, 255 )" d="M24.096,8.889 C24.096,8.889 23.836,9.149 23.836,9.149 C23.788,9.28400000000001 23.716,9.411 23.6079999999999,9.51900000000001 C23.6079999999999,9.51900000000001 16.519,16.609 16.519,16.609 C16.127,17 15.492,17 15.101,16.609 C15.101,16.609 14.3920000000001,15.899 14.3920000000001,15.899 C14,15.508 14,14.873 14.3920000000001,14.482 C14.3920000000001,14.482 18.873,10 18.873,10 C18.873,10 2,10 2,10 C2,10 1.29600000000005,9.572 1,9 C0.83900000000006,8.68899999999999 1,8.286 1,8 C1,7.324 2,7 2,7 C2,7 19.379,7 19.379,7 C19.379,7 14.904,2.52500000000001 14.904,2.52500000000001 C14.513,2.13500000000001 14.513,1.502 14.904,1.111 C14.904,1.111 15.611,0.404 15.611,0.404 C16.001,0.01300000000001 16.635,0.01300000000001 17.025,0.404 C17.025,0.404 24.096,7.47499999999999 24.096,7.47499999999999 C24.487,7.86499999999999 24.487,8.499 24.096,8.889 Z "/></svg>

<svg baseProfile="full" xmlns="http://www.w3.org/2000/svg" height="17" width="25"><path fill="rgb( 255, 255, 255 )" d="M24.096 8.889l-.26.26c-.048.135-.12.262-.228.37l-7.089 7.09c-.392.391-1.027.391-1.418 0l-.709-.71c-.392-.391-.392-1.026 0-1.417l4.481-4.482h-16.873s-.704-.428-1-1c-.161-.311 0-.714 0-1 0-.676 1-1 1-1h17.379l-4.475-4.475c-.391-.39-.391-1.023 0-1.414l.707-.707c.39-.391 1.024-.391 1.414 0l7.071 7.071c.391.39.391 1.024 0 1.414z"/></svg>
